public/svg/profiles/mobcrush.svg

<?xml version="1.0" encoding="UTF-8" standalone="no"?>
<svg width="50px" height="50px" viewBox="0 0 50 50" version="1.1" xmlns="http://www.w3.org/2000/svg" xmlns:xlink="http://www.w3.org/1999/xlink">
    <defs></defs>
    <g stroke="none" stroke-width="1" fill="none" fill-rule="evenodd">
        <g>
            <circle id="Oval" fill="#FFEC00" cx="25" cy="25" r="25"></circle>
            <path d="M29.1947368,17.2105263 L33.0736842,17.2105263 L33.0736842,24.9697368 L29.1947368,24.9697368 L29.1947368,17.2105263 Z M33.0736842,13.3289474 L40.8342105,13.3289474 L40.8342105,36.6092105 L33.075,36.6092105 L33.0736842,13.3289474 Z M21.4342105,24.9697368 L29.1947368,24.9697368 L29.1947368,32.7302632 L21.4342105,32.7302632 L21.4342105,24.9697368 Z M17.5552632,17.2105263 L25.3144737,17.2105263 L25.3144737,24.9697368 L17.5526316,24.9697368 L17.5552632,17.2105263 Z M9.79473684,13.3289474 L17.5539474,13.3289474 L17.5539474,36.6092105 L9.79605263,36.6092105 L9.79473684,13.3289474 Z" id="Shape" fill="#000000"></path>
        </g>
    </g>
</svg>

<svg width="50" height="50" viewBox="0 0 50 50" xmlns="http://www.w3.org/2000/svg"><g fill="none" fill-rule="evenodd"><circle fill="#FFEC00" cx="25" cy="25" r="25"/><path d="M29.195 17.21h3.88v7.76h-3.88v-7.76zm3.88-3.88h7.76v23.28h-7.76V13.33zm-11.64 11.64h7.76v7.76h-7.76v-7.76zm-3.88-7.76h7.76v7.76h-7.762l.002-7.76zm-7.76-3.88h7.76v23.28h-7.76V13.33z" fill="#000"/></g></svg>
